X:973
T:The Limerick Tinker
N:"Collected by J.O'Neill"
B:O'Neill's 973
Z:Transcribed by Dan G. Petersen, dangp@post6.tele.dk
M:6/8
L:1/8
K:Am
A2B cBA|BAG AGE|A2B cee|dBA G2A/G/E|
A2B cBA|BAG A2e/f/|gba g2e|dBG G2B||
efe edB|e2A ABd|efe edB|dBG GBd|
efe edB|e2A A2e/f/|gba g2e|dBG G2B||
c/d/c2A B2A|e/f/e2A A2B|c/d/c2A B2A|dBA GAB|
cBA BAG|AGE GAB|gba g2e|dBG G2B|]
